X:1
T: Hale-Bopp Circle
N:
C:Tune is "James Betagh" by O'Carolan
S:(Circle mixer)
A:
O:
R:
M:6/8
K:Em
I:speed 150
%W: A1
% voice 1 (1 lines, 30 notes)
K:Em
M:6/8
L:1/16
B2 |c6 a6 B6 g6 A2 c2 A2 e6 E2 G2 E2 c6 |G2 B2 G2 e4 d2 c2 B2 c2 A4 g2 a4 b2 c'4 b2 g6 e4 d2 |
%W: A2
% voice 1 (1 lines, 38 notes)
e2 f2 g2 g2 a2 g2 a4 b2 c'4 b2 a4 c'2 b4 d'2 c'2 b2 a2 ^g6 |a2 e2 d2 c2 B2 A2 G4 E2 c4 A2 G4 e2 B4 d2 c2 B2 A2 A4 c d |
%W: B1
% voice 1 (1 lines, 40 notes)
e4 e2 e2 c2 e2 e2 c2 e2 e2 f2 g2 a4 a2 a2 e2 a2 a2 e2 a2 c'2 b2 a2 |g4 g2 g2 c2 g2 g2 c2 g2 a4 g2 e4 d2 c2 B2 A2 ^G6 e4 E2 |
%W: B2
% voice 1 (1 lines, 39 notes)
E2 G2 E2 c2 B2 c2 G2 B2 G2 d2 c2 d2 A2 c2 A2 e2 d2 e2 d4 c2 B4 G2 |A2 c2 A2 a6 G2 A2 G2 g6 a4 e2 d2 c2 B2 B2 ^G2 E2 A4 ||
